img/icon-rocket.svg

<svg width="64" height="64" viewBox="0 0 64 64" fill="none" xmlns="http://www.w3.org/2000/svg">
<path d="M49.8477 53.6488C59.3905 44.1059 59.3905 28.6339 49.8477 19.0911C40.3048 9.54822 24.8328 9.54822 15.2899 19.0911C5.7471 28.6339 5.7471 44.1059 15.2899 53.6488C24.8328 63.1916 40.3048 63.1916 49.8477 53.6488Z" fill="url(#paint0_linear_2301_1194)"/>
<path opacity="0.2" d="M15.4633 32.3958C16.189 31.3591 16.1894 30.322 15.4633 29.2856C16.5 30.0113 17.5371 30.011 18.5735 29.2856C17.8485 30.3223 17.8478 31.3591 18.5735 32.3958C17.5371 31.6697 16.5004 31.6704 15.4633 32.3958Z" fill="white"/>
<path opacity="0.1" d="M48.2924 37.5795C49.0181 36.5427 49.0184 35.5057 48.2924 34.4693C49.3291 35.195 50.3662 35.1946 51.4026 34.4693C50.6775 35.506 50.6769 36.5427 51.4026 37.5795C50.3662 36.8534 49.3294 36.8541 48.2924 37.5795ZM24.102 54.8583C24.8277 53.8216 24.828 52.7845 24.102 51.7481C25.1387 52.4738 26.1758 52.4735 27.2122 51.7481C26.4871 52.7849 26.4865 53.8216 27.2122 54.8583C26.1758 54.1323 25.139 54.133 24.102 54.8583Z" fill="white"/>
<path d="M31.1855 39.1346L33.9502 39.1346L34.2957 60.8634H30.1488L31.1855 39.1346Z" fill="url(#paint1_linear_2301_1194)"/>
<path d="M31.1892 39.132L32.48 39.132L32.1909 60.7348L30.1519 60.7348L31.1892 39.132Z" fill="url(#paint2_linear_2301_1194)"/>
<path d="M32.3952 30.7518L32.5138 30.8049C32.5518 30.8224 32.6043 30.8441 32.6566 30.8699L32.8415 30.9595C32.9127 30.9933 32.9809 31.0312 33.0622 31.0727C33.1418 31.1144 33.2321 31.1598 33.3163 31.2089L33.5973 31.367C33.694 31.4233 33.7878 31.4831 33.892 31.5463C34.3411 31.8199 34.7704 32.1246 35.1769 32.4582C35.3948 32.6342 35.6 32.8216 35.8062 33.0191C36.0043 33.2167 36.2024 33.4243 36.3821 33.641C36.561 33.8562 36.7269 34.082 36.8788 34.317C37.0271 34.5486 37.1589 34.7903 37.2731 35.0404C37.4989 35.537 37.6427 36.0607 37.6911 36.6024C37.7179 36.8733 37.708 37.1486 37.7042 37.4274C37.6963 37.7061 37.6852 37.9883 37.6634 38.2727C37.6225 38.8509 37.5513 39.4265 37.4501 39.9972C37.3494 40.5751 37.2135 41.1529 37.0503 41.7217C36.9675 42.0057 36.8777 42.2875 36.7811 42.567C36.6836 42.8445 36.5794 43.1196 36.4685 43.3921C36.2456 43.9338 35.9989 44.4574 35.7317 44.954C35.4744 45.434 35.1935 45.9011 34.8902 46.3535C34.3117 47.2202 33.7075 47.9425 33.2271 48.4481L33.0539 48.6275L32.8955 48.7856L32.6324 49.035L32.4585 49.1897L32.3954 49.2427L32.3324 49.1897L32.1585 49.035L31.8954 48.7856L31.737 48.6275L31.5637 48.4481C31.0834 47.9425 30.4792 47.2203 29.9007 46.3535C29.5974 45.9011 29.3165 45.4341 29.0591 44.954C28.7919 44.4575 28.5451 43.9338 28.3224 43.3921C28.2115 43.1197 28.1073 42.8446 28.0098 42.5671C27.9137 42.2883 27.8231 42.0062 27.7405 41.7218C27.5773 41.153 27.4414 40.5751 27.3408 39.9973C27.2395 39.4265 27.1683 38.8509 27.1274 38.2727C27.1057 37.9883 27.0944 37.7062 27.0867 37.4274C27.0828 37.1487 27.073 36.8733 27.0998 36.6024C27.1482 36.0607 27.292 35.537 27.5177 35.0405C27.632 34.7904 27.7638 34.5486 27.912 34.317C28.064 34.082 28.2298 33.8563 28.4088 33.641C28.5884 33.4243 28.7866 33.2167 28.9846 33.0192C29.1908 32.8216 29.396 32.6343 29.6139 32.4583C30.0204 32.1247 30.4498 31.8199 30.8989 31.5464C31.0029 31.4832 31.0968 31.4234 31.1936 31.3671L31.4745 31.2089C31.5588 31.1599 31.6491 31.1144 31.7286 31.0728C31.8099 31.0311 31.8781 30.9934 31.9493 30.9595L32.1343 30.8699C32.1865 30.8441 32.2391 30.8224 32.277 30.8049C32.3548 30.7699 32.3952 30.7518 32.3952 30.7518Z" fill="#90FFF7"/>
<path d="M19.8241 30.7516L19.8241 37.8742C19.8241 38.3665 20.4194 38.613 20.7675 38.2649L23.7606 35.2718C23.8642 35.1682 24.0048 35.1099 24.1513 35.1099L28.0382 35.1099L24.794 25.5528L19.986 30.3609C19.9347 30.4122 19.894 30.4731 19.8662 30.5401C19.8384 30.6072 19.8241 30.679 19.8241 30.7516Z" fill="#F5F5F7"/>
<path d="M37.0197 34.265L40.9066 34.265C41.0532 34.2651 41.1937 34.3233 41.2974 34.4269L44.2905 37.42C44.6386 37.7681 45.2338 37.5216 45.2338 37.0293L45.2338 29.9067C45.2338 29.7602 45.1756 29.6196 45.0719 29.516L40.2639 24.708L37.0197 34.265Z" fill="#F5F5F7"/>
<path d="M32.8333 1.64491L32.8684 1.67241C32.8913 1.69068 32.9275 1.71789 32.9699 1.75379C33.0546 1.82559 33.1904 1.93221 33.3433 2.07125C33.6657 2.34932 34.1034 2.75709 34.6015 3.2761C35.1001 3.79512 35.6587 4.42537 36.2262 5.14829C36.3722 5.32902 36.5091 5.51555 36.6532 5.70757C36.8007 5.8996 36.9349 6.09713 37.0798 6.29986C37.3664 6.70538 37.6445 7.13171 37.9181 7.57657C38.4854 8.5005 38.9921 9.46023 39.4353 10.4497C39.8912 11.4692 40.2899 12.5443 40.6093 13.6565C40.9275 14.7686 41.1736 15.9178 41.332 17.0857C41.4917 18.2535 41.5651 19.4398 41.5572 20.6261C41.5495 21.8124 41.4621 22.9987 41.2917 24.1665C41.249 24.4584 41.2032 24.7493 41.1483 25.0386C41.0973 25.3279 41.0373 25.6158 40.9768 25.902C40.8526 26.4743 40.7066 27.0396 40.544 27.5957C40.2236 28.6902 39.8291 29.7616 39.3632 30.8025C38.9198 31.7909 38.4149 32.7505 37.8512 33.6756C37.5791 34.1205 37.3049 34.5468 37.0193 34.9523L36.8108 35.2524C36.741 35.3512 36.6673 35.4485 36.5974 35.5446L36.3886 35.8284L36.1754 36.1038C35.6149 36.8267 35.0642 37.457 34.573 37.976C34.0828 38.495 33.6501 38.9028 33.3344 39.1808C33.1845 39.3199 33.0502 39.4264 32.9675 39.4983C32.9259 39.5342 32.8901 39.5614 32.8677 39.5797L32.8333 39.6072C32.5723 39.8159 32.2077 39.8076 31.9572 39.6072L31.9229 39.5797C31.9005 39.5614 31.8647 39.5342 31.8231 39.4983C31.7404 39.4265 31.6061 39.32 31.4561 39.1809C31.1406 38.9028 30.7078 38.495 30.2176 37.976C29.7264 37.457 29.1757 36.8268 28.6151 36.1038L28.4019 35.8285L28.1932 35.5446C28.1232 35.4486 28.0497 35.3512 27.9798 35.2525L27.7712 34.9523C27.4857 34.5469 27.2114 34.1205 26.9393 33.6757C26.3756 32.7506 25.8707 31.791 25.4274 30.8025C24.9616 29.7616 24.5671 28.6902 24.2466 27.5958C24.0841 27.0397 23.938 26.4743 23.8137 25.902C23.7533 25.6158 23.6933 25.328 23.6422 25.0386C23.5873 24.7493 23.5416 24.4585 23.4989 24.1666C23.3285 22.9988 23.241 21.8124 23.2333 20.6261C23.2255 19.4398 23.2989 18.2535 23.4586 17.0857C23.617 15.9179 23.863 14.7687 24.1813 13.6565C24.5007 12.5443 24.8994 11.4692 25.3553 10.4498C25.7984 9.46028 26.3052 8.50055 26.8725 7.57662C27.1461 7.13176 27.4241 6.70543 27.7108 6.29991C27.8557 6.09718 27.9898 5.89965 28.1374 5.70762C28.2815 5.5156 28.4183 5.32907 28.5644 5.14834C29.1319 4.42542 29.6904 3.79517 30.1891 3.27615C30.6872 2.75714 31.1248 2.34932 31.4473 2.0713C31.6002 1.93226 31.736 1.82569 31.8207 1.75384C31.863 1.71794 31.8992 1.69068 31.9222 1.67246L31.9572 1.64496C32.2197 1.43898 32.5821 1.44772 32.8333 1.64491Z" fill="#01D4E4"/>
<path d="M35.0568 17.9656C36.5261 19.4349 36.5261 21.8171 35.0568 23.2864C33.5875 24.7557 31.2053 24.7557 29.736 23.2864C28.2668 21.8171 28.2668 19.4349 29.736 17.9656C31.2053 16.4964 33.5875 16.4964 35.0568 17.9656ZM30.7029 10.9373C29.7677 11.8725 29.7677 13.3889 30.7029 14.3242C31.6382 15.2595 33.1546 15.2595 34.0899 14.3242C35.0252 13.3889 35.0252 11.8725 34.0899 10.9373C33.1546 10.002 31.6382 10.002 30.7029 10.9373Z" fill="#00B0CC"/>
<path opacity="0.3" fill-rule="evenodd" clip-rule="evenodd" d="M31.0508 38.809C31.2012 38.951 31.3379 39.0753 31.4577 39.1809C31.5623 39.2779 31.6592 39.359 31.7364 39.4236C31.7699 39.4517 31.7997 39.4766 31.8247 39.4984C31.8553 39.5248 31.8827 39.5464 31.904 39.5633L31.9245 39.5797L31.9588 39.6072C32.2093 39.8076 32.5738 39.8159 32.8349 39.6072L32.8693 39.5797L32.8925 39.5612C32.9133 39.5446 32.9397 39.5236 32.969 39.4983C32.9941 39.4765 33.0239 39.4516 33.0575 39.4235C33.1346 39.3589 33.2315 39.2778 33.3361 39.1808C33.6516 38.9028 34.0845 38.495 34.5746 37.976C35.0658 37.457 35.6164 36.8267 36.1771 36.1038L36.3903 35.8284L36.599 35.5446C36.6689 35.4486 36.7426 35.3512 36.8124 35.2524L37.0209 34.9523C37.3065 34.5468 37.5808 34.1205 37.8528 33.6756C38.4165 32.7505 38.9215 31.7909 39.3648 30.8025C39.8307 29.7616 40.2252 28.6902 40.5455 27.5957C40.7082 27.0396 40.8542 26.4743 40.9784 25.902C41.0389 25.6158 41.0989 25.328 41.15 25.0386C41.2048 24.7493 41.2506 24.4584 41.2933 24.1665C41.4637 22.9987 41.5511 21.8124 41.5588 20.6261C41.5667 19.4398 41.4933 18.2535 41.3336 17.0857C41.1752 15.9179 40.9292 14.7687 40.6109 13.6565C40.2915 12.5443 39.8928 11.4692 39.4369 10.4497C38.9937 9.46025 38.487 8.50051 37.9197 7.57659C37.646 7.13174 37.3681 6.7054 37.0814 6.29987C36.9365 6.09714 36.8024 5.89962 36.6548 5.70759C36.5579 5.5785 36.4643 5.45188 36.369 5.32785C36.3225 5.26738 36.2756 5.20753 36.2278 5.1483C35.6603 4.42538 35.1017 3.79514 34.6031 3.27612C34.105 2.7571 33.6674 2.34933 33.3449 2.07126C33.2354 1.97171 33.1347 1.88876 33.0553 1.82333C33.0238 1.79739 32.9955 1.77419 32.9715 1.7538C32.9292 1.7179 32.8929 1.69069 32.87 1.67243L32.8349 1.64493C32.5837 1.44773 32.2213 1.439 31.9588 1.64498L31.9238 1.67247L31.9037 1.68825C31.8819 1.70522 31.8538 1.72715 31.8223 1.75385C31.7979 1.77451 31.7693 1.79804 31.7374 1.82438C31.6582 1.88967 31.5579 1.97226 31.4489 2.07132C31.4254 2.09163 31.4012 2.11265 31.3764 2.13434C31.6288 2.36862 31.919 2.65181 32.2333 2.9793C32.732 3.49831 33.2905 4.12856 33.858 4.85148C34.004 5.03221 34.141 5.21874 34.285 5.41077C34.3902 5.54758 34.4885 5.68717 34.5887 5.82945C34.6292 5.88688 34.6699 5.94474 34.7116 6.00305C34.9983 6.40858 35.2763 6.83492 35.5499 7.27977C36.1172 8.20369 36.624 9.16343 37.0671 10.1529C37.523 11.1724 37.9217 12.2475 38.2411 13.3596C38.5594 14.4718 38.8055 15.621 38.9638 16.7889C39.1235 17.9567 39.1969 19.143 39.1891 20.3293C39.1813 21.5156 39.0939 22.7019 38.9235 23.8697C38.9016 24.0201 38.8787 24.1701 38.8543 24.3198C38.8312 24.4608 38.8068 24.6015 38.7802 24.7418C38.7291 25.0311 38.6691 25.319 38.6087 25.6052C38.4844 26.1775 38.3385 26.7428 38.1758 27.2989C37.8554 28.3934 37.4609 29.4648 36.995 30.5057C36.5517 31.4941 36.0467 32.4537 35.4831 33.3788C35.211 33.8237 34.9367 34.25 34.6511 34.6555L34.4426 34.9556C34.3728 35.0543 34.2992 35.1517 34.2292 35.2477L34.0205 35.5316L33.8073 35.807C33.2467 36.5299 32.696 37.1602 32.2048 37.6792C31.7571 38.1533 31.3572 38.5346 31.0508 38.809Z" fill="white"/>
<path d="M32.3957 26.9945L32.5018 27.0433C32.5659 27.0756 32.6567 27.1233 32.7488 27.1857C32.9438 27.3104 33.15 27.4933 33.2557 27.7261C33.3094 27.8425 33.3224 27.9714 33.3536 28.1117L33.445 28.5659L33.6634 29.655C33.7467 30.0841 33.8275 30.5137 33.9058 30.9437C33.9926 31.4224 34.0754 31.9019 34.1542 32.382L34.2744 33.1417L34.3884 33.9201C34.4615 34.4439 34.5323 34.976 34.5954 35.5081C34.6597 36.0368 34.7187 36.5662 34.7725 37.0961C34.8267 37.6199 34.8817 38.1353 34.9273 38.6341L34.9972 39.3689C35.017 39.609 35.0516 39.8438 35.0477 40.0725C35.0451 40.3011 35.0009 40.5235 34.9096 40.7386C34.8209 40.9537 34.6961 41.1616 34.5741 41.3612C34.3429 41.7361 34.0935 42.0996 33.827 42.4503C33.7039 42.6124 33.5828 42.7641 33.4655 42.9045C33.3496 43.0448 33.2305 43.1736 33.1296 43.2901C33.0271 43.4065 32.922 43.5104 32.8378 43.6008C32.7509 43.6912 32.6682 43.7681 32.6056 43.8305C32.5404 43.8929 32.4862 43.9407 32.4518 43.9729L32.3959 44.0217L32.34 43.9729C32.3055 43.9407 32.2513 43.8928 32.1861 43.8305C32.1235 43.7681 32.0409 43.6913 31.954 43.6008C31.8696 43.5104 31.7646 43.4065 31.6621 43.2901C31.5612 43.1737 31.4422 43.0448 31.3262 42.9045C31.2089 42.7642 31.0878 42.6125 30.9648 42.4503C30.6982 42.0996 30.4489 41.7361 30.2176 41.3612C30.0957 41.1616 29.9709 40.9538 29.8822 40.7386C29.7908 40.5235 29.7466 40.3011 29.7441 40.0725C29.7402 39.8439 29.7748 39.609 29.7947 39.3689L29.8646 38.6341C29.9102 38.1353 29.9651 37.6198 30.0194 37.0961C30.0726 36.5723 30.1316 36.0402 30.1964 35.5081C30.2595 34.976 30.3304 34.4439 30.4034 33.9201L30.5174 33.1417L30.6377 32.382C30.7165 31.9019 30.7993 31.4224 30.886 30.9437C30.969 30.4864 31.0512 30.0541 31.1284 29.655L31.3468 28.5659L31.4382 28.1117C31.4694 27.9715 31.4823 27.8426 31.5361 27.7261C31.6418 27.4933 31.848 27.3104 32.043 27.1857C32.1351 27.1233 32.2259 27.0756 32.29 27.0433L32.3957 26.9945Z" fill="#F5F5F7"/>
<defs>
<linearGradient id="paint0_linear_2301_1194" x1="32.5688" y1="-0.407668" x2="32.5688" y2="56.761" gradientUnits="userSpaceOnUse">
<stop stop-color="#06C0CF"/>
<stop offset="1" stop-color="#06C0CF" stop-opacity="0"/>
</linearGradient>
<linearGradient id="paint1_linear_2301_1194" x1="23.049" y1="40.9985" x2="37.5769" y2="55.5264" gradientUnits="userSpaceOnUse">
<stop stop-color="#06C0CF"/>
<stop offset="1" stop-color="#06C0CF" stop-opacity="0"/>
</linearGradient>
<linearGradient id="paint2_linear_2301_1194" x1="22.9977" y1="41.6151" x2="36.2187" y2="54.8361" gradientUnits="userSpaceOnUse">
<stop stop-color="#06C0CF"/>
<stop offset="1" stop-color="#06C0CF" stop-opacity="0"/>
</linearGradient>
</defs>
</svg>

<svg width="64" height="64" fill="none" xmlns="http://www.w3.org/2000/svg"><path d="M49.848 53.649c9.543-9.543 9.543-25.015 0-34.558s-25.015-9.543-34.558 0-9.543 25.015 0 34.558 25.015 9.543 34.558 0Z" fill="url(#a)"/><path opacity=".2" d="M15.463 32.396c.726-1.037.726-2.074 0-3.11 1.037.725 2.074.725 3.11 0-.724 1.036-.725 2.073 0 3.11-1.036-.726-2.073-.726-3.11 0Z" fill="#fff"/><path opacity=".1" d="M48.292 37.58c.726-1.037.726-2.074 0-3.11 1.037.725 2.074.725 3.11 0-.724 1.036-.725 2.073 0 3.11-1.036-.727-2.073-.726-3.11 0Zm-24.19 17.278c.726-1.036.726-2.073 0-3.11 1.037.726 2.074.726 3.11 0-.725 1.037-.726 2.074 0 3.11-1.036-.726-2.073-.725-3.11 0Z" fill="#fff"/><path d="M31.186 39.135h2.764l.346 21.728h-4.147l1.037-21.728Z" fill="url(#b)"/><path d="M31.19 39.132h1.29l-.29 21.603h-2.038l1.037-21.603Z" fill="url(#c)"/><path d="m32.395 30.752.119.053.143.065.185.09c.07.033.139.071.22.113.08.041.17.087.254.136l.281.158c.097.056.19.116.295.18.45.273.878.578 1.285.911a9.05 9.05 0 0 1 1.205 1.183c.179.215.345.441.497.676.148.232.28.473.394.723.226.497.37 1.02.418 1.562.027.271.017.547.013.825a17.544 17.544 0 0 1-.254 2.57 16.608 16.608 0 0 1-.982 3.395 16.772 16.772 0 0 1-1.578 2.961 16.02 16.02 0 0 1-1.663 2.095l-.173.18-.159.158-.263.249-.173.155-.064.053-.063-.053-.174-.155-.263-.25-.158-.157-.173-.18a16.022 16.022 0 0 1-1.663-2.095 16.592 16.592 0 0 1-2.56-6.356 17.41 17.41 0 0 1-.254-2.57c-.004-.278-.014-.554.013-.825a4.797 4.797 0 0 1 .418-1.561c.114-.25.246-.492.394-.724.152-.235.318-.46.497-.676a9.023 9.023 0 0 1 1.205-1.183c.406-.333.836-.638 1.285-.912.104-.063.198-.123.295-.179l.28-.158c.085-.05.175-.095.255-.136.08-.042.15-.08.22-.114l.185-.09c.053-.025.105-.047.143-.064l.118-.053Z" fill="#90FFF7"/><path d="M19.824 30.752v7.122c0 .492.595.739.943.39l2.994-2.992a.553.553 0 0 1 .39-.162h3.887l-3.244-9.557-4.808 4.808a.553.553 0 0 0-.162.39ZM37.02 34.265h3.887c.146 0 .287.058.39.162l2.994 2.993a.553.553 0 0 0 .943-.39v-7.123a.552.552 0 0 0-.162-.391l-4.808-4.808-3.244 9.557Z" fill="#F5F5F7"/><path d="m32.833 1.645.035.027c.023.019.06.046.102.082.085.072.22.178.373.317.323.278.76.686 1.258 1.205.5.52 1.058 1.15 1.625 1.872.146.181.283.368.427.56.148.192.282.39.427.592a25.1 25.1 0 0 1 2.355 4.15c.456 1.02.855 2.094 1.174 3.207a24.418 24.418 0 0 1 .948 6.97 25.709 25.709 0 0 1-.58 5.275 25.133 25.133 0 0 1-1.614 4.9 25.873 25.873 0 0 1-2.344 4.15l-.208.3c-.07.1-.144.197-.214.293l-.208.283-.214.276a25.245 25.245 0 0 1-1.602 1.872c-.49.519-.923.927-1.239 1.205-.15.139-.284.245-.367.317-.041.036-.077.063-.1.082l-.034.027a.702.702 0 0 1-.876 0l-.034-.027c-.022-.019-.058-.046-.1-.082-.083-.072-.217-.178-.367-.317a19.266 19.266 0 0 1-1.238-1.205 25.248 25.248 0 0 1-1.603-1.872l-.213-.276-.209-.283c-.07-.096-.143-.194-.213-.293l-.209-.3a25.848 25.848 0 0 1-2.344-4.15 25.168 25.168 0 0 1-2.194-10.176 24.41 24.41 0 0 1 .948-6.97 24.31 24.31 0 0 1 1.174-3.206 25.08 25.08 0 0 1 2.356-4.15c.145-.203.279-.4.426-.592.145-.192.281-.379.427-.56a25.001 25.001 0 0 1 1.625-1.872c.498-.519.936-.927 1.258-1.205.153-.139.289-.245.374-.317.042-.036.078-.063.101-.082l.035-.027a.71.71 0 0 1 .876 0Z" fill="#01D4E4"/><path d="M35.057 17.966a3.762 3.762 0 1 1-5.321 5.32 3.762 3.762 0 0 1 5.32-5.32Zm-4.354-7.029a2.395 2.395 0 1 0 3.387 3.387 2.395 2.395 0 0 0-3.387-3.387Z" fill="#00B0CC"/><path opacity=".3" fill-rule="evenodd" clip-rule="evenodd" d="M31.05 38.809a16.209 16.209 0 0 0 .686.615l.089.074c.03.027.058.048.079.065l.02.017.035.027c.25.2.615.209.876 0l.034-.027.023-.019c.021-.016.048-.037.077-.063l.088-.075a19.206 19.206 0 0 0 1.517-1.447 25.292 25.292 0 0 0 1.603-1.872l.213-.276.209-.283c.07-.096.144-.194.213-.293l.209-.3a25.856 25.856 0 0 0 2.344-4.15 25.118 25.118 0 0 0 2.194-10.176 24.41 24.41 0 0 0-.948-6.97 24.316 24.316 0 0 0-1.174-3.206A25.1 25.1 0 0 0 37.08 6.3c-.145-.203-.279-.4-.426-.592-.097-.13-.19-.256-.286-.38a25.024 25.024 0 0 0-1.766-2.052 18.944 18.944 0 0 0-1.258-1.205c-.11-.1-.21-.182-.29-.248l-.084-.07c-.042-.035-.078-.062-.101-.08l-.035-.028a.71.71 0 0 0-.876 0l-.035.027-.02.016-.082.066-.085.07c-.079.066-.18.148-.288.247a16.3 16.3 0 0 0-.073.063c.253.235.543.518.857.845a25 25 0 0 1 1.625 1.872c.146.181.283.368.427.56.105.137.204.276.304.418a23.905 23.905 0 0 1 .961 1.45 25.083 25.083 0 0 1 1.517 2.874 24.32 24.32 0 0 1 1.174 3.207 24.394 24.394 0 0 1 .948 6.97 25.724 25.724 0 0 1-.58 5.275 25.133 25.133 0 0 1-1.614 4.9 25.872 25.872 0 0 1-2.344 4.15l-.208.3c-.07.1-.144.197-.214.293l-.209.284-.213.275a25.268 25.268 0 0 1-1.602 1.872c-.448.474-.848.856-1.154 1.13Z" fill="#fff"/><path d="m32.396 26.994.106.05c.064.032.155.08.247.142.195.124.401.307.507.54.053.117.066.245.098.386l.091.454.218 1.089a87.44 87.44 0 0 1 .49 2.727l.121.76.114.778a80.53 80.53 0 0 1 .384 3.176c.055.524.11 1.04.155 1.538l.07.735c.02.24.055.475.05.703a1.738 1.738 0 0 1-.137.667 4.554 4.554 0 0 1-.336.622 13.593 13.593 0 0 1-1.108 1.544c-.116.14-.236.269-.336.385-.103.117-.208.22-.292.31-.087.091-.17.168-.232.23-.066.063-.12.11-.154.143l-.056.049-.056-.05c-.035-.031-.089-.08-.154-.142-.063-.062-.145-.139-.232-.23-.084-.09-.19-.194-.292-.31-.1-.116-.22-.245-.336-.386a13.594 13.594 0 0 1-1.109-1.543 4.558 4.558 0 0 1-.335-.622 1.735 1.735 0 0 1-.138-.666c-.004-.23.03-.464.05-.704l.07-.735c.046-.499.101-1.014.155-1.538a80.216 80.216 0 0 1 .384-3.176l.114-.778.12-.76a88.512 88.512 0 0 1 .491-2.727l.219-1.09.091-.453c.031-.14.044-.27.098-.386.106-.233.312-.416.507-.54a2.22 2.22 0 0 1 .247-.143l.106-.049Z" fill="#F5F5F7"/><defs><linearGradient id="a" x1="32.569" y1="-.408" x2="32.569" y2="56.761" gradientUnits="userSpaceOnUse"><stop stop-color="#06C0CF"/><stop offset="1" stop-color="#06C0CF" stop-opacity="0"/></linearGradient><linearGradient id="b" x1="23.049" y1="40.998" x2="37.577" y2="55.526" gradientUnits="userSpaceOnUse"><stop stop-color="#06C0CF"/><stop offset="1" stop-color="#06C0CF" stop-opacity="0"/></linearGradient><linearGradient id="c" x1="22.998" y1="41.615" x2="36.219" y2="54.836" gradientUnits="userSpaceOnUse"><stop stop-color="#06C0CF"/><stop offset="1" stop-color="#06C0CF" stop-opacity="0"/></linearGradient></defs></svg>
